X: 28
T:Mareys Dream. JMP.028
M:C|
L:1/4
Q:125
C:"31...a hornpipe"
S:John Miller MS. Perth, 1799.(for the fife)
R:Hornpipe
O:Scotland
A:Perth
H:1799
Z:vmp.C. Graebe
K:G major
B/A/ | G EE D/E/ | G/F/G/A/ B G/A/ | BEE F/G/ | A/G/F/E/ D B/A/ |!
 GEE D/E/ | G/F/G/A/ B A/G/ | A/B/d/e/ d/B/A/B/| GEE :|!
|: B/d/ |  e>d B A/G/ |A/G/A/B/ d B/d/ |e>d B A/G/ | A/G/F/E/ D B/A/ |!
 GEE D/E/ |G/F/G/A/ B A/G/ | A/B/d/e/ d/B/A/B/ | GEE :|]
